src/resources/assets/alert.svg

<svg xmlns="http://www.w3.org/2000/svg" width="16" height="16"><path d="M 8 2 C 5.515625 2 3.5 4.015625 3.5 6.5 L 3.5 8.902344 L 2.535156 11.316406 C 2.472656 11.46875 2.492188 11.644531 2.585938 11.78125 C 2.679688 11.917969 2.835938 12 3 12 L 6 12 C 6 13.109375 6.890625 14 8 14 C 9.109375 14 10 13.109375 10 12 L 13 12 C 13.164062 12 13.320312 11.917969 13.414062 11.78125 C 13.507812 11.644531 13.527344 11.46875 13.464844 11.316406 L 12.5 8.902344 L 12.5 6.5 C 12.5 4.015625 10.484375 2 8 2 Z M 9 12 C 9 12.554688 8.554688 13 8 13 C 7.445312 13 7 12.554688 7 12 Z M 4.5 6.5 C 4.5 4.566406 6.066406 3 8 3 C 9.933594 3 11.5 4.566406 11.5 6.5 L 11.5 8.996094 C 11.5 9.0625 11.511719 9.125 11.535156 9.183594 L 12.261719 11 L 3.738281 11 L 4.464844 9.183594 C 4.488281 9.125 4.5 9.0625 4.5 8.996094 Z M 4.5 6.5" fill="#ddd"/></svg>

<svg xmlns="http://www.w3.org/2000/svg" width="16" height="16"><path d="M8 2a4.501 4.501 0 00-4.5 4.5v2.402l-.965 2.414a.494.494 0 00.05.465c.095.137.25.219.415.219h3c0 1.11.89 2 2 2 1.11 0 2-.89 2-2h3c.164 0 .32-.082.414-.219a.494.494 0 00.05-.465L12.5 8.902V6.5C12.5 4.016 10.484 2 8 2zm1 10c0 .555-.445 1-1 1-.555 0-1-.445-1-1zM4.5 6.5a3.5 3.5 0 117 0v2.496a.5.5 0 00.035.188L12.262 11H3.738l.727-1.816a.5.5 0 00.035-.188zm0 0" fill="#ddd"/></svg>
